X: 20434
T: SAILOR'S HORNPIPE
C:
%R: hornpipe, reel
B: Elias Howe "The Musician's Companion" 1843 p.43 #4
S: http://imslp.org/wiki/The_Musician's_Companion_(Howe,_Elias)
Z: 2015 John Chambers <jc:trillian.mit.edu>
N: Lengthened initial A note to fix the rhythm.
M: C|
L: 1/8
K: D
% - - - - - - - - - - - - - - - - - - - - - - - - -
A2 |\
dcdA FGAF | dcdA F2ef | gfge fded | c2A2 A2AB |\
dcdA FGAF | dcdA F2ef | gfge fded | A2d2 d2 :|
|: fg |\
a3f afaf | bgbg e2fg | a2a2 (3(bag) (3(fed) | c2A2 A2fg |\
a3f afaf | bgbg e2fg | afaf bgec | d2d2 d2 :|
% - - - - - - - - - - - - - - - - - - - - - - - - -
